X: 17096
T: Hedgehope Hill
R: reel
M: 4/4
K: Amajor
ceae f2ed|Beef edBe|dBBd BAAF|DFAF ABde|
ceae f2ed|Beef edBe|dBBd BAAF|1 DFAF E2ed:|2 DFAF E4||
|:EAAB cABc|Bdde dcBA|Bdde dcAc|Bc (3dcB cBAF|
EAAB cABc|Bdde dcdf|efgb aece|1 dBGB A4:|2 dBGB A2ed||

